X: 153
T: Sarah Armstrong's Tune
B: canberra pickers and fiddlers
B: old time tunes update
B: tunes
M:C|
L:1/8
Q: 1/4=100
K:D
V:1 
|:DB,|"D"A,2D2"G"B,2D2|"D"A,2DE FEDF|"A"E2A2 "D"F2A2|"A"E2AB cBAF|
"D"A,2D2"G"B,2D2|"D"A,2DE FEDA|FAAB A2AB|"A"AGFE"D"D2:|
|:(3ABc|"D"d2dc dAFD|"A"E3F EFGA|"G"B2Bc BAFE|"D"D d2c dABc|
"D"d2dc dAFD|"A"E3F EFGA|"G"B2Bc BAFE|1"D"B,D2ED2:|2"D"B,D2E DEDB,|]
dB|"D"A2d2"G"B2d2|"D"A2de fedf|"A"e2a2 "D"f2a2|"A"e2ab c'baf|
"D"A2d2"G"B2d2|"D"A2de feda|faab a2ab|"A"agfe"D"d2:|
V:2 
|:FE|"D"D2F2"G"D2G2|"D"F2FG AGFG|"A"A2c2 "D"A2d2|"A"c2cd edcA|
"D"D2F2"G"D2G2|"D"F2FG AGFc|Accd c2cd|"A"cBAG"D"F2:|
|:(3cde|"D"f2fe fdAF|"A"A3A AABc|"G"d2de dBAG|"D"Ff2e fcde|
"D"f2fe fdAF|"A"A3A AABc|"G"d2de dcAF|"D"DF2F DF:|
% abcbook-tune_id 67a7d9ecf30727d9190c7c08
% abcbook-tune_composer_id 
% abcbook-link-0 https://www.youtube.com/watch?v=WxglPupFanc
% abcbook-link-title-0 Sarah Armstrong&#39;s Tune
% abcbook-link-start-at-0 24
% abcbook-boost 0
% abcbook-difficulty 0
% abcbook-tags old time tunes
% abcbook-tablature 
% abcbook-transpose 
% abcbook-tuning ADAE
% abcbook-lastupdated 1739237028039
% abcbook-src-url 
% abcbook-soundfonts 
% abcbook-repeats 1


